X:1
T:Title
%%score { 1 | 2 }
L:1/8
Q:1/4=84
M:6/8
K:Ab
V:1 treble nm="Grand Piano"
V:2 bass 
V:1
 [CE][_C=D][=CE] [_DF][CE][_C=D] | [CE]2 [Ec] [Ec]3 | [CA][DG][EA] [FB][FA][DF] | [CE]6 | %4
w: James~M.~Black * * * * *||||
 [CE][_C=D][=CE] [_DF][CE][_C=D] | [CE]2 [_Gc] [Fd]3 | cBA GAB | A6 | cBA c c2 | %9
w: |||||
 [FA][EG][DF] [FA] [FA]2 | AAA [FB][FA][FB] | [=Ec]6 | [CE][_C=D][=CE] [_DF][CE][_C=D] | %13
w: ||||
 [CE]2 [_Gc] [Fd]3 | cBA GAB |[M:7/4] A6 z2 z2 z4 |] %16
w: |||
V:2
 [A,,A,][A,,A,][A,,A,] [A,,A,][A,,A,][A,,A,] | [A,,A,]2 [A,,A,] [A,,A,]3 | %2
 [A,,E,][B,,E,][C,A,] [D,A,][D,A,][D,A,] | [A,,A,]6 | [A,,A,][A,,A,][A,,A,] [A,,A,][A,,A,][A,,A,] | %5
 [A,,A,]2 [A,,A,] [D,A,]3 | [E,A,E][E,DE][E,CE] [E,B,E][E,CE][E,DE] | [A,CE]6 | %8
 [A,E][A,D][A,C] [A,E] [A,E]2 | [D,C][D,D][D,A,] [D,D] [D,D]2 | %10
 [F,CF][F,CF][F,CF] [D,F,][D,F,][D,F,] | [C,G,]6 | [A,,A,][A,,A,][A,,A,] [A,,A,][A,,A,][A,,A,] | %13
 [A,,A,]2 [A,,A,] [D,A,]3 | [E,A,E][E,DE][E,CE] [E,B,E][E,CE][E,DE] |[M:7/4] [A,CE]6 z2 z2 z4 |] %16

